images/icons/generic-website.svg

<svg fill="none" height="24" viewBox="0 0 24 24" width="24" xmlns="http://www.w3.org/2000/svg" xmlns:xlink="http://www.w3.org/1999/xlink"><clipPath id="a"><path d="m0 0h24v24h-24z"/></clipPath><g clip-path="url(#a)"><path d="m12 24c-1.64 0-3.19-.315-4.65-.945s-2.735-1.49-3.825-2.58-1.95-2.365-2.58-3.825-.945-3.01-.945-4.65c0-1.66.315-3.215.945-4.665s1.49-2.72 2.58-3.81 2.365-1.95 3.825-2.58 3.01-.945 4.65-.945c1.66 0 3.215.315 4.665.945s2.72 1.49 3.81 2.58 1.95 2.36 2.58 3.81.945 3.005.945 4.665c0 1.64-.315 3.19-.945 4.65s-1.49 2.735-2.58 3.825-2.36 1.95-3.81 2.58-3.005.945-4.665.945zm0-2.46c.52-.72.97-1.47 1.35-2.25s.69-1.61.93-2.49h-4.56c.24.88.55 1.71.93 2.49s.83 1.53 1.35 2.25zm-3.12-.48c-.36-.66-.675-1.345-.945-2.055s-.495-1.445-.675-2.205h-3.54c.58 1 1.305 1.87 2.175 2.61s1.865 1.29 2.985 1.65zm6.24 0c1.12-.36 2.115-.91 2.985-1.65s1.595-1.61 2.175-2.61h-3.54c-.18.76-.405 1.495-.675 2.205s-.585 1.395-.945 2.055zm-12.42-6.66h4.08c-.06-.4-.105-.795-.135-1.185s-.045-.795-.045-1.215.015-.825.045-1.215.075-.785.135-1.185h-4.08c-.1.4-.175.795-.225 1.185s-.075.795-.075 1.215.025.825.075 1.215.125.785.225 1.185zm6.48 0h5.64c.06-.4.105-.795.135-1.185s.045-.795.045-1.215-.015-.825-.045-1.215-.075-.785-.135-1.185h-5.64c-.06.4-.105.795-.135 1.185s-.045.795-.045 1.215.015.825.045 1.215.075.785.135 1.185zm8.04 0h4.08c.1-.4.175-.795.225-1.185s.075-.795.075-1.215-.025-.825-.075-1.215-.125-.785-.225-1.185h-4.08c.06.4.105.795.135 1.185s.045.795.045 1.215-.015.825-.045 1.215-.075.785-.135 1.185zm-.48-7.2h3.54c-.58-1-1.305-1.87-2.175-2.61s-1.865-1.29-2.985-1.65c.36.66.675 1.345.945 2.055s.495 1.445.675 2.205zm-7.02 0h4.56c-.24-.88-.55-1.71-.93-2.49s-.83-1.53-1.35-2.25c-.52.72-.97 1.47-1.35 2.25s-.69 1.61-.93 2.49zm-6 0h3.54c.18-.76.405-1.495.675-2.205s.585-1.395.945-2.055c-1.12.36-2.115.91-2.985 1.65s-1.595 1.61-2.175 2.61z" fill="#fff"/></g></svg>

<svg width="24" height="24" viewBox="0 0 24 24" fill="none" xmlns="http://www.w3.org/2000/svg">
<g clip-path="url(#clip0_1436_664)">
<path d="M12 24C10.36 24 8.81 23.685 7.35 23.055C5.89 22.425 4.615 21.565 3.525 20.475C2.435 19.385 1.575 18.11 0.945 16.65C0.315 15.19 0 13.64 0 12C0 10.34 0.315 8.785 0.945 7.335C1.575 5.885 2.435 4.615 3.525 3.525C4.615 2.435 5.89 1.575 7.35 0.945C8.81 0.315 10.36 0 12 0C13.66 0 15.215 0.315 16.665 0.945C18.115 1.575 19.385 2.435 20.475 3.525C21.565 4.615 22.425 5.885 23.055 7.335C23.685 8.785 24 10.34 24 12C24 13.64 23.685 15.19 23.055 16.65C22.425 18.11 21.565 19.385 20.475 20.475C19.385 21.565 18.115 22.425 16.665 23.055C15.215 23.685 13.66 24 12 24ZM12 21.54C12.52 20.82 12.97 20.07 13.35 19.29C13.73 18.51 14.04 17.68 14.28 16.8H9.72C9.96 17.68 10.27 18.51 10.65 19.29C11.03 20.07 11.48 20.82 12 21.54ZM8.88 21.06C8.52 20.4 8.205 19.715 7.935 19.005C7.665 18.295 7.44 17.56 7.26 16.8H3.72C4.3 17.8 5.025 18.67 5.895 19.41C6.765 20.15 7.76 20.7 8.88 21.06ZM15.12 21.06C16.24 20.7 17.235 20.15 18.105 19.41C18.975 18.67 19.7 17.8 20.28 16.8H16.74C16.56 17.56 16.335 18.295 16.065 19.005C15.795 19.715 15.48 20.4 15.12 21.06ZM2.7 14.4H6.78C6.72 14 6.675 13.605 6.645 13.215C6.615 12.825 6.6 12.42 6.6 12C6.6 11.58 6.615 11.175 6.645 10.785C6.675 10.395 6.72 10 6.78 9.6H2.7C2.6 10 2.525 10.395 2.475 10.785C2.425 11.175 2.4 11.58 2.4 12C2.4 12.42 2.425 12.825 2.475 13.215C2.525 13.605 2.6 14 2.7 14.4ZM9.18 14.4H14.82C14.88 14 14.925 13.605 14.955 13.215C14.985 12.825 15 12.42 15 12C15 11.58 14.985 11.175 14.955 10.785C14.925 10.395 14.88 10 14.82 9.6H9.18C9.12 10 9.075 10.395 9.045 10.785C9.015 11.175 9 11.58 9 12C9 12.42 9.015 12.825 9.045 13.215C9.075 13.605 9.12 14 9.18 14.4ZM17.22 14.4H21.3C21.4 14 21.475 13.605 21.525 13.215C21.575 12.825 21.6 12.42 21.6 12C21.6 11.58 21.575 11.175 21.525 10.785C21.475 10.395 21.4 10 21.3 9.6H17.22C17.28 10 17.325 10.395 17.355 10.785C17.385 11.175 17.4 11.58 17.4 12C17.4 12.42 17.385 12.825 17.355 13.215C17.325 13.605 17.28 14 17.22 14.4ZM16.74 7.2H20.28C19.7 6.2 18.975 5.33 18.105 4.59C17.235 3.85 16.24 3.3 15.12 2.94C15.48 3.6 15.795 4.285 16.065 4.995C16.335 5.705 16.56 6.44 16.74 7.2ZM9.72 7.2H14.28C14.04 6.32 13.73 5.49 13.35 4.71C12.97 3.93 12.52 3.18 12 2.46C11.48 3.18 11.03 3.93 10.65 4.71C10.27 5.49 9.96 6.32 9.72 7.2ZM3.72 7.2H7.26C7.44 6.44 7.665 5.705 7.935 4.995C8.205 4.285 8.52 3.6 8.88 2.94C7.76 3.3 6.765 3.85 5.895 4.59C5.025 5.33 4.3 6.2 3.72 7.2Z" fill="white"/>
</g>
<defs>
<clipPath id="clip0_1436_664">
<rect width="24" height="24" fill="white"/>
</clipPath>
</defs>
</svg>
